dist/assets/img/benefits/emailbox.svg

<svg viewBox="0 0 48 48" fill="none" xmlns="http://www.w3.org/2000/svg">
    <path
      d="M33.1875 20.7866H34.5625C38.9808 20.7866 42.5625 24.4308 42.5625 28.8491V28.8491C42.5625 33.2673 38.9808 36.9116 34.5625 36.9116H11.0625C7.9559 36.9116 5.4375 34.3932 5.4375 31.2866V31.2866C5.4375 28.18 7.9559 25.6616 11.0625 25.6616H15.1875"
      stroke="currentColor" stroke-width="3" stroke-linecap="round" />
    <path
      d="M33.1749 20.7034C31.7193 15.3932 26.5079 12.1936 21.5348 13.5567C16.5617 14.9199 13.7103 20.3298 15.1659 25.64"
      stroke="currentColor" stroke-width="3" stroke-linecap="round" />
    <path d="M30.7163 26.1913L25.6393 21.7501L20.5623 26.1913" stroke="currentColor" stroke-width="3" stroke-linecap="round"
      stroke-linejoin="round" />
    <path d="M25.6391 22.0976L25.6392 31.4999" stroke="currentColor" stroke-width="3" stroke-linecap="round" />
</svg>

<svg viewBox="0 0 48 48" fill="none" xmlns="http://www.w3.org/2000/svg"><path d="M33.188 20.787h1.374c4.419 0 8 3.644 8 8.062v0c0 4.418-3.581 8.063-8 8.063h-23.5a5.625 5.625 0 01-5.624-5.625v0a5.625 5.625 0 015.625-5.625h4.124" stroke="currentColor" stroke-width="3" stroke-linecap="round"/><path d="M33.175 20.703c-1.456-5.31-6.667-8.51-11.64-7.146-4.973 1.363-7.825 6.773-6.37 12.083" stroke="currentColor" stroke-width="3" stroke-linecap="round"/><path d="M30.716 26.191l-5.077-4.44-5.077 4.44" stroke="currentColor" stroke-width="3" stroke-linecap="round" stroke-linejoin="round"/><path d="M25.64 22.098V31.5" stroke="currentColor" stroke-width="3" stroke-linecap="round"/></svg>
